client/public/img/game/shared/weapons/psm_world.svg

<?xml version="1.0" encoding="UTF-8" standalone="no"?>
<!-- Created with Inkscape (http://www.inkscape.org/) -->

<svg
   width="50.338764"
   height="14.607602"
   viewBox="0 0 13.318798 3.8649281"
   version="1.1"
   id="svg1"
   xml:space="preserve"
   inkscape:version="1.4.2 (1:1.4.2+202505120737+ebf0e940d0)"
   sodipodi:docname="psm_world.svg"
   inkscape:export-filename="psm_world.png"
   inkscape:export-xdpi="96"
   inkscape:export-ydpi="96"
   xmlns:inkscape="http://www.inkscape.org/namespaces/inkscape"
   xmlns:sodipodi="http://sodipodi.sourceforge.net/DTD/sodipodi-0.dtd"
   xmlns="http://www.w3.org/2000/svg"
   xmlns:svg="http://www.w3.org/2000/svg"><sodipodi:namedview
     id="namedview1"
     pagecolor="#ffffff"
     bordercolor="#000000"
     borderopacity="0.25"
     inkscape:showpageshadow="2"
     inkscape:pageopacity="0.0"
     inkscape:pagecheckerboard="0"
     inkscape:deskcolor="#d1d1d1"
     inkscape:document-units="px"
     inkscape:zoom="16.267265"
     inkscape:cx="23.851581"
     inkscape:cy="7.4689874"
     inkscape:window-width="2560"
     inkscape:window-height="1368"
     inkscape:window-x="0"
     inkscape:window-y="0"
     inkscape:window-maximized="1"
     inkscape:current-layer="layer1" /><defs
     id="defs1"><clipPath
       clipPathUnits="userSpaceOnUse"
       id="clipPath3"><circle
         style="fill:#ffdbac;fill-opacity:1;stroke-width:97.6567;stroke-linecap:round"
         id="circle3"
         cy="11.90625"
         cx="11.90625"
         r="11.90625" /></clipPath><clipPath
       clipPathUnits="userSpaceOnUse"
       id="clipPath4"><circle
         style="fill:#ffdbac;fill-opacity:1;stroke-width:97.6567;stroke-linecap:round"
         id="circle4"
         cy="11.90625"
         cx="11.90625"
         r="11.90625" /></clipPath><clipPath
       clipPathUnits="userSpaceOnUse"
       id="clipPath5"><circle
         style="fill:#ffdbac;fill-opacity:1;stroke-width:97.6567;stroke-linecap:round"
         id="circle5"
         cy="11.90625"
         cx="11.90625"
         r="11.90625" /></clipPath><clipPath
       clipPathUnits="userSpaceOnUse"
       id="clipPath6"><circle
         style="fill:#ffdbac;fill-opacity:1;stroke-width:97.6567;stroke-linecap:round"
         id="circle6"
         cy="11.90625"
         cx="11.90625"
         r="11.90625" /></clipPath><clipPath
       clipPathUnits="userSpaceOnUse"
       id="clipPath7"><circle
         style="fill:#ffdbac;fill-opacity:1;stroke-width:97.6567;stroke-linecap:round"
         id="circle7"
         cy="11.90625"
         cx="11.90625"
         r="11.90625" /></clipPath><clipPath
       clipPathUnits="userSpaceOnUse"
       id="clipPath8"><circle
         style="fill:#ffdbac;fill-opacity:1;stroke-width:97.6567;stroke-linecap:round"
         id="circle8"
         cy="11.90625"
         cx="11.90625"
         r="11.90625" /></clipPath><clipPath
       clipPathUnits="userSpaceOnUse"
       id="clipPath9"><circle
         style="fill:#ffdbac;fill-opacity:1;stroke-width:97.6567;stroke-linecap:round"
         id="circle9"
         cy="11.90625"
         cx="11.90625"
         r="11.90625" /></clipPath><clipPath
       clipPathUnits="userSpaceOnUse"
       id="clipPath11"><circle
         style="fill:#ffdbac;fill-opacity:1;stroke-width:97.6567;stroke-linecap:round"
         id="circle11"
         cy="11.90625"
         cx="11.90625"
         r="11.90625" /></clipPath><clipPath
       clipPathUnits="userSpaceOnUse"
       id="clipPath12"><circle
         style="fill:#ffdbac;fill-opacity:1;stroke-width:97.6567;stroke-linecap:round"
         id="circle12"
         cy="11.90625"
         cx="11.90625"
         r="11.90625" /></clipPath><clipPath
       clipPathUnits="userSpaceOnUse"
       id="clipPath13"><circle
         style="fill:#ffdbac;fill-opacity:1;stroke-width:97.6567;stroke-linecap:round"
         id="circle13"
         cy="11.90625"
         cx="11.90625"
         r="11.90625" /></clipPath><clipPath
       clipPathUnits="userSpaceOnUse"
       id="clipPath14"><circle
         style="fill:#ffdbac;fill-opacity:1;stroke-width:97.6567;stroke-linecap:round"
         id="circle14"
         cy="11.90625"
         cx="11.90625"
         r="11.90625" /></clipPath></defs><g
     inkscape:label="Layer 1"
     inkscape:groupmode="layer"
     id="layer1"
     transform="translate(-0.08747597,-0.05191093)"><g
       id="g32"
       transform="translate(0.01710733,-0.06262868)"><g
         id="g4"
         transform="translate(-0.23001859,0.13801115)"><rect
           width="2.7258565"
           height="3.2148304"
           x="0.79731387"
           y="0.4281992"
           rx="0.890953"
           ry="0.890953"
           style="fill:#713723;fill-opacity:1;fill-rule:evenodd;stroke:#171717;stroke-width:0.396854;stroke-linecap:round;stroke-linejoin:round;stroke-dasharray:none;stroke-opacity:1"
           id="rect1-8" /><rect
           width="4.6195879"
           height="2.3744805"
           x="0.69723624"
           y="0.84806299"
           rx="0.77623683"
           ry="0.37489012"
           style="fill:#44444a;fill-opacity:1;fill-rule:evenodd;stroke:#171717;stroke-width:0.793698;stroke-linecap:round;stroke-linejoin:round;stroke-dasharray:none;stroke-opacity:1"
           id="rect2-3" /></g><path
         d="m 4.257414,1.7780993 v 0.7910525 c 0,0.084661 -0.068787,0.1508026 -0.1508026,0.1508026 H 1.6588462 A 0.15080265,0.15080265 0 0 1 1.5080435,2.5691518 V 1.7780993 c 0,-0.084661 0.068787,-0.1508027 0.1508027,-0.1508027 h 2.4451195 c 0.084661,0 0.1508027,0.068787 0.1508027,0.1508027 z"
         class="cls-11"
         style="fill:#3a3a46;fill-opacity:1;fill-rule:evenodd;stroke:#171717;stroke-width:0.396849;stroke-linejoin:round;stroke-miterlimit:10;stroke-dasharray:none;stroke-opacity:1"
         id="path3-0" /><rect
         style="fill:#63626a;fill-opacity:1;fill-rule:evenodd;stroke:#171717;stroke-width:0.79375;stroke-linecap:round;stroke-linejoin:round;stroke-miterlimit:29;stroke-dasharray:none;stroke-opacity:1"
         id="rect4"
         width="9.5475693"
         height="2.6222119"
         x="2.8982339"
         y="0.86251956" /><g
         id="g30"
         transform="translate(0,-0.00482172)"><path
           style="fill:#44444a;fill-opacity:1;fill-rule:evenodd;stroke:#171717;stroke-width:0.396875;stroke-linecap:round;stroke-linejoin:round;stroke-miterlimit:29;stroke-dasharray:none;stroke-opacity:1"
           d="M 5.1559321,1.7240658 H 12.247372 V 1.0572101 H 5.1396674 Z"
           id="path18"
           sodipodi:nodetypes="ccccc" /><path
           style="fill:#44444a;fill-opacity:1;fill-rule:evenodd;stroke:#171717;stroke-width:0.396875;stroke-linecap:round;stroke-linejoin:round;stroke-miterlimit:29;stroke-dasharray:none;stroke-opacity:1"
           d="M 5.1559321,3.2996844 H 12.247372 V 2.6328288 H 5.1396674 Z"
           id="path18-8"
           sodipodi:nodetypes="ccccc" /></g><rect
         style="fill:#44444a;fill-opacity:1;fill-rule:evenodd;stroke:#171717;stroke-width:0.396875;stroke-linecap:round;stroke-linejoin:round;stroke-miterlimit:29;stroke-dasharray:none;stroke-opacity:1"
         id="rect5"
         width="2.1144204"
         height="2.260803"
         x="3.0415123"
         y="1.0432241" /><g
         id="g5"
         transform="translate(0,0.03980483)"><path
           d="M 3.5434702,1.4493875 H 4.2944306 V 2.8182539 H 3.5434702 Z"
           style="fill:#454555;fill-opacity:1;fill-rule:evenodd;stroke:#171717;stroke-width:0.343333;stroke-linecap:round;stroke-linejoin:round;stroke-dasharray:none;stroke-opacity:1"
           id="path15-80" /><path
           d="M 3.7154857,1.8617688 H 4.1224151 V 2.4058726 H 3.7154857 Z"
           style="fill:#40404e;fill-opacity:1;fill-rule:evenodd;stroke:none;stroke-width:0.248792;stroke-linecap:round;stroke-linejoin:round;stroke-dasharray:none;stroke-opacity:1"
           id="path16-87" /></g><rect
         style="fill:#40404e;fill-opacity:1;fill-rule:evenodd;stroke:#171717;stroke-width:0.396875;stroke-linecap:round;stroke-linejoin:round;stroke-miterlimit:29;stroke-dasharray:none;stroke-opacity:1"
         id="rect18"
         width="0.5367375"
         height="1.9517725"
         x="12.653992"
         y="1.1977394" /><path
         style="fill:#40404e;fill-opacity:1;fill-rule:evenodd;stroke:#171717;stroke-width:0.396875;stroke-linecap:round;stroke-linejoin:round;stroke-miterlimit:29;stroke-dasharray:none;stroke-opacity:1"
         d="M 1.06933,0.31297711 H 1.7460518 V 0.51570877 H 2.4355707 V 0.97540742 H 1.06933 Z"
         id="path19"
         sodipodi:nodetypes="ccccccc" /><path
         style="fill:#7b7b84;fill-opacity:1;fill-rule:evenodd;stroke:#171717;stroke-width:0.396875;stroke-linecap:round;stroke-linejoin:round;stroke-miterlimit:29;stroke-dasharray:none;stroke-opacity:1"
         d="m 5.2860502,3.3342779 c 0,0 -0.1215043,-0.5130993 0.1990297,-0.7590537 0.320534,-0.2459544 1.3351595,-0.2455406 1.6551542,0 0.3199947,0.2455406 0.1979739,0.755114 0.1979739,0.755114 z"
         id="path29"
         sodipodi:nodetypes="czzcc" /><path
         style="fill:#7b7b84;fill-opacity:1;fill-rule:evenodd;stroke:#171717;stroke-width:0.396875;stroke-linecap:round;stroke-linejoin:round;stroke-miterlimit:29;stroke-dasharray:none;stroke-opacity:1"
         d="m 11.401604,2.1736255 h 0.422884"
         id="path30"
         sodipodi:nodetypes="cc" /></g></g></svg>

<svg xmlns="http://www.w3.org/2000/svg" xml:space="preserve" width="50.339" height="14.608" viewBox="0 0 13.319 3.865"><g transform="translate(-.3 .023)"><rect width="2.726" height="3.215" x=".797" y=".428" rx=".891" ry=".891" style="fill:#713723;fill-opacity:1;fill-rule:evenodd;stroke:#171717;stroke-width:.396854;stroke-linecap:round;stroke-linejoin:round;stroke-dasharray:none;stroke-opacity:1"/><rect width="4.62" height="2.374" x=".697" y=".848" rx=".776" ry=".375" style="fill:#44444a;fill-opacity:1;fill-rule:evenodd;stroke:#171717;stroke-width:.793698;stroke-linecap:round;stroke-linejoin:round;stroke-dasharray:none;stroke-opacity:1"/></g><path d="M4.257 1.778v.791a.15.15 0 0 1-.15.151H1.659a.15.15 0 0 1-.151-.15v-.792a.15.15 0 0 1 .15-.15h2.446a.15.15 0 0 1 .15.15z" class="cls-11" style="fill:#3a3a46;fill-opacity:1;fill-rule:evenodd;stroke:#171717;stroke-width:.396849;stroke-linejoin:round;stroke-miterlimit:10;stroke-dasharray:none;stroke-opacity:1" transform="translate(-.07 -.115)"/><path d="M2.898.863h9.548v2.622H2.898z" style="fill:#63626a;fill-opacity:1;fill-rule:evenodd;stroke:#171717;stroke-width:.79375;stroke-linecap:round;stroke-linejoin:round;stroke-miterlimit:29;stroke-dasharray:none;stroke-opacity:1" transform="translate(-.07 -.115)"/><path d="M5.156 1.724h7.091v-.667H5.14ZM5.156 3.3h7.091v-.667H5.14Z" style="fill:#44444a;fill-opacity:1;fill-rule:evenodd;stroke:#171717;stroke-width:.396875;stroke-linecap:round;stroke-linejoin:round;stroke-miterlimit:29;stroke-dasharray:none;stroke-opacity:1" transform="translate(-.07 -.12)"/><path d="M3.042 1.043h2.114v2.261H3.042z" style="fill:#44444a;fill-opacity:1;fill-rule:evenodd;stroke:#171717;stroke-width:.396875;stroke-linecap:round;stroke-linejoin:round;stroke-miterlimit:29;stroke-dasharray:none;stroke-opacity:1" transform="translate(-.07 -.115)"/><path d="M3.543 1.45h.751v1.368h-.75Z" style="fill:#454555;fill-opacity:1;fill-rule:evenodd;stroke:#171717;stroke-width:.343333;stroke-linecap:round;stroke-linejoin:round;stroke-dasharray:none;stroke-opacity:1" transform="translate(-.07 -.075)"/><path d="M3.715 1.862h.407v.544h-.407Z" style="fill:#40404e;fill-opacity:1;fill-rule:evenodd;stroke:none;stroke-width:.248792;stroke-linecap:round;stroke-linejoin:round;stroke-dasharray:none;stroke-opacity:1" transform="translate(-.07 -.075)"/><path d="M12.654 1.198h.537V3.15h-.537zM1.07.313h.676v.203h.69v.46H1.069Z" style="fill:#40404e;fill-opacity:1;fill-rule:evenodd;stroke:#171717;stroke-width:.396875;stroke-linecap:round;stroke-linejoin:round;stroke-miterlimit:29;stroke-dasharray:none;stroke-opacity:1" transform="translate(-.07 -.115)"/><path d="M5.286 3.334s-.121-.513.2-.759c.32-.246 1.334-.245 1.654 0 .32.246.198.755.198.755zM11.402 2.174h.422" style="fill:#7b7b84;fill-opacity:1;fill-rule:evenodd;stroke:#171717;stroke-width:.396875;stroke-linecap:round;stroke-linejoin:round;stroke-miterlimit:29;stroke-dasharray:none;stroke-opacity:1" transform="translate(-.07 -.115)"/></svg>
